X:574
T:Quick Step. JBut.572, A
B:John Buttrey MS, poss. Lincolnshire, early 19thC
S:https://buttreymilitarysocialtunes1800.wordpress.com/
Z:Village Music Project 2019 Eric Conrad
M:2/4
L:1/16
N:A very pretty tune!  I think it's used as an English country dance setting, but I can't place it.
N:NB - ms has 1st bar of B music as "Bis" i.e. twice, so repeated here.
K:Em
P:A
|: F2 | G2AB E2B2 | G2E2 B2G2 | F2GA D2A2 | F2D2 A2F2 |
G2AB E2B2 | G2E2 B2G2 | F2GA B,2D2 | E4 E2 :|
P:B
|: G4 G2d2 |G4 G2d2 | A2B2 A2G2 | F2G2 A2F2 |
E2e2 e2f2 |g2f2 e2d2 | ((3e2f2g2) e2d2 | e4 e2f2 |
((3e2f2g2) d2B2 |G2B2 d2B2 | A2B2 A2G2 | F2G2 A2F2 |
D2B2 e2d2 |e2c2 A2c2 | B2A2 G2F2 | E4 E2 z2 :|

